docs/img/card-product/cheked.svg

<svg width="60" height="56" viewBox="0 0 60 56" fill="none" xmlns="http://www.w3.org/2000/svg">
<path d="M0 5C0 2.23858 2.23858 0 5 0H60V51C60 53.7614 57.7614 56 55 56H0V5Z" fill="#F05A00"/>
<path fill-rule="evenodd" clip-rule="evenodd" d="M35.02 16.7268C32.5907 15.6443 29.8765 15.3762 27.2823 15.9623C24.6881 16.5484 22.3529 17.9574 20.6249 19.9792C18.8969 22.0009 17.8687 24.5271 17.6937 27.1809C17.5187 29.8347 18.2063 32.474 19.6538 34.7052C21.1014 36.9363 23.2314 38.6397 25.7262 39.5614C28.2209 40.4831 30.9468 40.5737 33.4973 39.8196C36.0477 39.0655 38.2861 37.5072 39.8785 35.377C41.4708 33.247 42.332 30.6594 42.3337 28C42.3337 27.9998 42.3337 28.0002 42.3337 28V26.7734C42.3337 26.2211 42.7814 25.7734 43.3337 25.7734C43.886 25.7734 44.3337 26.2211 44.3337 26.7734V28C44.3319 31.0909 43.331 34.099 41.4804 36.5745C39.6297 39.0501 37.0284 40.8611 34.0643 41.7375C31.1003 42.6139 27.9324 42.5087 25.0331 41.4375C22.1337 40.3663 19.6583 38.3867 17.976 35.7937C16.2937 33.2008 15.4947 30.1335 15.6981 27.0493C15.9014 23.9651 17.0963 21.0293 19.1045 18.6797C21.1127 16.3301 23.8267 14.6926 26.8415 14.0115C29.8564 13.3303 33.0107 13.6419 35.834 14.8999C36.3385 15.1247 36.5652 15.7159 36.3404 16.2204C36.1156 16.7248 35.5245 16.9516 35.02 16.7268Z" fill="white"/>
<path fill-rule="evenodd" clip-rule="evenodd" d="M44.0401 16.6259C44.4308 17.0162 44.4311 17.6494 44.0408 18.0401L30.7075 31.3868C30.52 31.5745 30.2656 31.68 30.0002 31.68C29.7349 31.6801 29.4805 31.5747 29.2929 31.3871L25.2929 27.3871C24.9024 26.9966 24.9024 26.3635 25.2929 25.9729C25.6834 25.5824 26.3166 25.5824 26.7071 25.9729L29.9996 29.2655L42.6259 16.6266C43.0162 16.2359 43.6494 16.2356 44.0401 16.6259Z" fill="white"/>
</svg>

<svg width="60" height="56" fill="none" xmlns="http://www.w3.org/2000/svg"><path d="M0 5a5 5 0 015-5h55v51a5 5 0 01-5 5H0V5z" fill="#F05A00"/><path fill-rule="evenodd" clip-rule="evenodd" d="M35.02 16.727A12.333 12.333 0 1042.334 28v-1.227a1 1 0 112 0V28a14.335 14.335 0 01-19.3 13.438 14.333 14.333 0 1110.8-26.538 1 1 0 01-.814 1.827z" fill="#fff"/><path fill-rule="evenodd" clip-rule="evenodd" d="M44.04 16.626a1 1 0 010 1.414L30.709 31.387a1 1 0 01-1.415 0l-4-4a1 1 0 011.414-1.414L30 29.266l12.626-12.64a1 1 0 011.414 0z" fill="#fff"/></svg>
